X: 49
T: Ching Chit Quaw Dance
R: reel
M: 2/4
L: 1/16
Z: 2012 John Chambers <jc:trillian.mit.edu>
B: Saml. Ann & Peter Thompson "Twenty Four Country Dances for the Year 1791", London 1791, p.25 #1
K: G
% - - - - - - - - - - - - - - - - - - - - - - - - -
G2 |\
B2B2d2d2 | A2A2c2c2 | B2G2c2A2 | F2A2d2 :||: d2 |
dcB2 BAG2 | G2c2 e2g2 | dcBc dede | d2g2d2G2 |
B2B2d2d2 | A2A2c2c2 | Bcdc Bcdc | B2g2G2 :|
% - - - - - - - - Dance description - - - - - - - -
%%begintext align
%% Cast off one Cu: .|.
%% up again :|.
%% cross over two Cu: lead up one Cu: Right & left at top .|: :|:
%%endtext

%%sep 1 1 500
%%sep 1 1 500
